<?xml version="1.0" encoding="UTF-8"?>
<map version="1.10" tiledversion="1.12.2" orientation="orthogonal" renderorder="right-down" width="30" height="20" tilewidth="16" tileheight="16" infinite="0" nextlayerid="6" nextobjectid="2">
 <tileset firstgid="1" source="survivorsTileset.tsx"/>
 <layer id="1" name="Terreno" width="30" height="20">
  <data encoding="csv">
67,67,67,67,67,130,67,67,67,67,67,67,67,259,67,67,67,67,67,67,67,259,67,67,67,67,67,130,67,67,
67,67,67,67,67,67,67,67,131,67,67,67,67,67,67,67,130,67,67,67,67,67,67,67,259,67,67,67,67,67,
67,67,67,67,67,67,67,67,67,67,67,130,67,67,67,132,67,67,67,67,259,67,130,67,67,67,67,67,67,67,
67,67,67,67,67,67,130,67,67,67,67,67,67,67,131,67,67,67,67,67,67,67,67,67,67,67,132,67,67,67,
67,67,67,67,67,67,67,67,67,67,67,67,67,67,67,67,67,131,67,67,67,67,67,259,67,67,67,67,67,67,
67,67,67,67,67,67,67,132,67,67,130,67,67,67,67,67,132,67,67,132,67,67,67,67,67,131,67,67,67,67,
67,67,67,67,67,67,67,67,67,67,67,67,67,130,67,67,67,67,67,67,67,67,130,67,67,67,67,67,67,67,
67,67,67,67,67,130,67,67,259,67,67,132,67,67,67,67,67,130,67,67,67,67,67,67,67,67,259,259,130,67,
67,67,67,259,67,67,67,67,67,131,67,67,67,67,67,67,259,67,67,67,259,67,132,67,67,67,67,67,67,67,
67,67,67,67,67,67,67,259,67,67,67,67,67,131,67,67,67,67,67,67,67,67,67,67,131,67,67,67,67,67,
67,131,67,67,131,67,67,67,67,67,67,67,67,67,67,67,131,67,67,259,67,130,67,67,67,67,67,67,67,67,
67,67,67,67,67,67,132,67,67,67,130,67,67,67,132,67,67,67,67,67,67,67,67,67,67,131,67,67,67,67,
132,67,67,67,67,67,67,130,67,67,67,67,67,259,67,130,67,67,67,67,67,67,259,67,67,67,67,67,67,67,
67,131,67,67,131,67,67,67,67,67,67,131,67,67,67,67,259,67,67,131,67,67,67,67,67,67,67,131,67,67,
474,474,474,474,474,474,474,474,474,474,474,474,474,474,474,474,474,474,474,474,474,474,474,474,67,131,67,67,67,67,
1356,1357,1358,1359,1356,1357,1358,1359,1356,1357,1358,1359,1356,1357,1358,1359,1356,1357,1358,1359,1356,1357,1358,1359,474,474,67,67,132,67,
1164,1165,1166,1167,1164,1165,1166,1167,1164,1165,1166,1167,1164,1165,1166,1167,1164,1165,1166,1167,1164,1165,1166,1167,1164,1165,474,474,67,67,
1228,1229,1230,1231,1228,1229,1230,1231,1228,1229,1230,1231,1228,1229,1230,1231,1228,1229,1230,1231,1228,1229,1230,1231,1228,1229,1230,1231,474,474,
1292,1293,1294,1295,1292,1293,1294,1295,1292,1293,1294,1295,1292,1293,1294,1295,1292,1293,1294,1295,1292,1293,1294,1295,1292,1293,1294,1295,1292,1293,
1356,1357,1358,1359,1356,1357,1358,1359,1356,1357,1358,1359,1356,1357,1358,1359,1356,1357,1358,1359,1356,1357,1358,1359,1356,1357,1358,1359,1356,1357
</data>
 </layer>
 <layer id="3" name="terrenoDetalhes" width="30" height="20">
  <data encoding="csv">
313,314,313,314,313,381,0,0,0,0,0,0,0,0,0,3112,0,0,0,0,0,0,0,0,0,178,179,310,441,442,
377,378,377,378,377,445,0,0,0,0,0,0,0,0,0,0,0,0,0,0,0,0,0,0,177,0,0,374,377,378,
313,314,313,314,313,507,0,0,0,0,0,0,0,0,0,0,0,0,0,0,0,0,0,0,0,0,0,438,441,442,
377,378,377,378,377,571,0,0,0,0,0,0,0,0,0,0,0,0,0,0,0,0,0,0,0,0,0,504,505,506,
313,314,313,314,569,635,0,0,0,0,0,0,0,0,0,0,0,0,0,0,0,0,241,0,0,0,177,568,441,442,
377,378,377,378,507,0,0,0,0,0,0,0,0,0,0,0,0,0,0,0,0,114,115,0,0,0,0,504,505,506,
313,314,378,379,571,0,0,0,0,0,0,0,0,0,0,0,0,0,0,0,0,178,179,114,115,0,0,568,441,442,
377,378,442,443,635,0,0,0,0,0,0,0,0,0,0,0,0,0,0,0,0,0,0,178,179,114,115,504,505,506,
313,314,569,635,0,0,0,0,0,0,0,0,0,0,0,0,0,0,0,0,0,0,0,0,0,178,179,568,441,442,
377,439,2103,0,0,0,0,0,0,0,0,0,0,0,0,0,0,0,0,0,0,0,0,0,0,0,2103,504,505,506,
569,0,0,0,0,0,0,0,0,0,0,0,0,0,0,0,0,0,0,0,0,0,0,0,0,0,0,568,441,442,
633,0,0,0,0,0,0,0,0,0,0,0,0,0,0,0,0,0,0,0,0,0,0,0,0,0,308,632,440,506,
2103,308,114,115,0,0,0,0,0,0,0,0,0,0,0,0,0,0,0,0,0,0,0,0,2103,114,115,308,374,442,
0,97,178,179,2103,0,0,0,0,0,0,0,0,0,0,0,0,0,0,0,0,0,0,0,0,178,179,0,310,506,
0,0,0,0,0,0,0,0,0,0,0,0,0,0,0,0,0,0,0,0,0,0,0,0,308,114,115,308,502,440,
0,152,152,152,152,152,152,152,152,152,152,152,152,152,152,152,152,152,152,152,152,152,152,217,527,178,179,0,0,374,
0,0,0,0,0,0,0,0,216,360,361,362,0,0,0,0,0,0,0,0,0,0,0,0,152,217,527,0,2103,438,
0,1083,1019,0,0,0,0,0,0,0,0,0,216,0,0,0,0,0,0,0,0,0,0,0,0,0,152,217,527,502,
0,1147,0,0,0,0,0,0,0,0,0,0,0,0,0,0,0,0,0,0,0,0,0,0,0,0,0,0,152,152,
0,0,0,0,0,0,0,0,0,0,0,0,0,0,0,0,0,0,0,0,0,0,0,0,0,0,0,891,1019,0
</data>
 </layer>
 <layer id="2" name="TerMaisDetEDecoracao" width="30" height="20">
  <data encoding="csv">
0,0,0,0,0,0,0,0,0,0,0,0,0,0,0,0,0,0,0,0,0,0,0,114,115,0,0,0,0,0,
0,0,0,0,0,0,0,0,0,0,0,0,0,0,0,0,0,0,0,0,0,0,0,178,179,0,0,0,0,0,
0,0,0,0,0,0,0,0,0,0,0,0,0,0,0,0,0,0,0,0,0,0,0,0,0,241,0,0,0,0,
0,0,0,0,0,0,0,0,0,0,0,0,0,0,0,0,0,0,0,0,0,0,177,0,177,0,0,0,0,0,
0,0,0,0,0,0,0,0,0,0,0,0,0,0,0,0,0,0,0,0,0,0,0,0,0,0,0,0,0,0,
0,0,0,0,0,0,0,0,0,0,0,0,0,0,0,0,0,0,0,0,0,0,0,177,0,0,0,0,0,0,
0,0,0,0,0,0,0,0,0,0,0,0,0,0,0,0,0,0,0,0,0,0,0,0,0,0,0,0,0,0,
0,0,0,0,0,0,0,0,0,0,0,0,0,0,0,0,0,0,0,0,0,0,0,0,0,0,0,0,0,0,
0,0,0,0,0,0,0,0,0,0,0,0,0,0,0,0,0,0,0,0,0,0,0,0,0,0,0,0,0,0,
0,0,0,0,0,0,0,0,0,0,0,0,0,0,0,0,0,0,0,0,0,0,0,0,0,0,0,0,0,0,
0,246,247,0,0,0,0,0,0,0,0,0,0,0,0,0,0,0,0,0,0,0,0,0,0,0,0,0,0,0,
0,310,571,0,0,0,0,0,0,0,0,0,0,0,0,0,0,0,0,0,0,0,0,0,0,0,0,0,0,0,
0,634,503,97,0,0,0,0,0,0,0,0,0,0,0,0,0,0,0,0,0,0,0,0,0,0,0,0,0,0,
114,115,0,0,0,0,0,0,0,0,0,0,0,0,0,0,0,0,0,0,0,0,0,0,0,0,0,0,0,0,
178,179,308,98,308,0,0,0,0,0,0,0,0,0,0,0,0,0,0,0,0,0,0,161,0,0,0,0,0,0,
152,0,0,0,0,0,0,0,0,360,361,362,0,216,0,0,0,0,0,0,0,0,0,152,160,0,225,0,0,0,
0,213,0,0,0,0,213,0,0,424,425,426,0,0,0,0,0,0,0,213,0,0,0,0,0,152,224,0,0,0,
0,0,0,0,0,0,0,0,0,0,0,0,0,0,0,0,213,0,0,0,0,0,0,0,0,0,0,152,98,0,
0,0,0,0,216,0,0,0,0,0,0,0,0,0,0,0,0,0,216,0,0,0,0,213,0,0,0,0,0,213,
213,0,0,0,0,0,0,0,0,213,0,0,0,0,213,0,0,0,0,0,0,0,0,0,0,0,213,0,0,0
</data>
 </layer>
 <layer id="5" name="maisDecoSobDeco" width="30" height="20">
  <data encoding="csv">
0,0,0,0,0,0,0,0,0,0,0,0,0,0,0,0,0,0,0,0,0,0,0,0,0,0,0,0,0,0,
0,0,0,0,0,0,0,0,0,0,0,0,0,0,0,0,0,0,0,0,0,0,0,0,0,0,0,0,0,0,
0,0,0,0,0,0,0,0,0,0,0,0,0,0,0,0,0,0,0,0,0,0,0,0,0,0,0,0,0,0,
0,0,0,0,0,0,0,0,0,0,0,0,0,0,0,0,0,0,0,0,0,0,0,0,0,0,0,0,0,0,
0,0,0,0,0,0,0,0,0,0,0,0,0,0,0,0,0,0,0,0,0,0,0,0,0,0,0,0,0,0,
0,0,0,0,0,0,0,0,0,0,0,0,0,0,0,0,0,0,0,0,0,0,0,0,0,0,0,0,0,0,
0,0,0,0,0,0,0,0,0,0,0,0,0,0,0,0,0,0,0,0,0,0,0,0,0,0,0,0,0,0,
0,0,0,0,0,0,0,0,0,0,0,0,0,0,0,0,0,0,0,0,0,0,0,0,0,0,0,0,0,0,
0,0,0,0,0,0,0,0,0,0,0,0,0,0,0,0,0,0,0,0,0,0,0,0,0,0,0,0,0,0,
0,0,0,0,0,0,0,0,0,0,0,0,0,0,0,0,0,0,0,0,0,0,0,0,0,0,0,0,0,0,
0,0,0,0,0,0,0,0,0,0,0,0,0,0,0,0,0,0,0,0,0,0,0,0,0,0,0,0,0,0,
0,0,0,0,0,0,0,0,0,0,0,0,0,0,0,0,0,0,0,0,0,0,0,0,0,0,0,0,0,0,
115,0,0,0,0,0,0,0,0,0,0,0,0,0,0,0,0,0,0,0,0,0,0,0,0,0,0,0,0,0,
179,0,0,0,0,0,0,0,0,0,0,0,0,0,0,0,0,0,0,0,0,0,0,0,0,0,0,0,0,0,
0,0,0,0,0,0,0,0,0,0,0,0,0,0,0,0,0,0,0,0,0,0,0,0,0,0,0,0,0,0,
0,0,0,0,0,0,0,0,0,0,0,0,0,0,0,0,0,0,0,0,0,0,0,0,0,0,0,114,115,0,
0,0,0,0,0,0,0,0,0,0,0,0,0,0,0,0,0,0,0,0,0,0,0,0,0,0,225,178,179,0,
0,0,0,0,0,0,0,0,0,0,0,0,0,0,0,0,0,0,0,0,0,0,0,0,0,0,0,0,0,0,
0,0,0,0,0,0,0,0,0,0,0,0,0,0,0,0,0,0,0,0,0,0,0,0,0,0,0,0,0,0,
0,0,0,0,0,0,0,0,0,0,0,0,0,0,0,0,0,0,0,0,0,0,0,0,0,0,0,0,0,0
</data>
 </layer>
</map>
