<?xml version="1.0" encoding="UTF-8"?>
<map version="1.10" tiledversion="1.12.2" orientation="orthogonal" renderorder="right-down" width="30" height="20" tilewidth="16" tileheight="16" infinite="0" nextlayerid="11" nextobjectid="1">
 <tileset firstgid="1" source="survivorsTileset.tsx"/>
 <layer id="3" name="Terreno" width="30" height="20">
  <data encoding="csv">
67,67,67,67,67,67,67,67,67,67,67,67,67,67,67,67,67,67,67,67,67,67,67,67,67,67,67,67,67,67,
67,67,67,67,67,67,67,67,67,67,67,67,67,67,67,67,67,67,67,67,67,67,67,67,67,67,67,67,67,67,
67,67,67,131,67,67,67,67,67,67,67,67,67,67,67,67,258,195,67,67,67,131,67,67,67,67,195,67,67,67,
67,67,67,67,67,67,67,196,67,258,67,67,67,67,67,67,67,67,67,67,67,67,67,67,67,67,67,67,67,67,
67,67,67,67,67,131,67,67,67,67,67,67,195,67,67,130,67,67,67,67,67,67,67,198,67,131,67,67,67,67,
67,67,130,67,67,67,67,67,67,67,67,67,67,67,67,131,67,67,67,67,67,198,67,130,67,67,67,195,67,67,
67,67,67,67,67,67,195,67,67,67,67,67,67,67,67,67,67,67,198,67,198,67,67,67,67,67,67,67,67,67,
67,67,195,67,67,67,131,67,67,130,67,67,67,67,67,67,67,67,67,67,67,67,131,67,67,67,67,67,67,67,
67,67,67,67,67,67,67,67,67,67,67,67,67,131,67,67,67,67,131,67,67,67,67,67,67,131,67,67,67,67,
67,67,67,67,67,67,196,67,67,67,67,131,67,67,67,198,67,198,67,67,198,67,67,67,67,67,67,67,195,67,
67,67,67,67,67,131,67,67,67,67,67,67,67,67,67,67,67,67,67,67,67,67,67,198,67,67,67,67,67,67,
67,67,67,67,67,67,67,67,67,67,67,67,67,67,67,67,67,67,67,198,67,67,195,67,67,67,67,67,67,67,
67,67,195,67,67,67,67,67,195,67,67,195,67,67,67,67,195,67,67,67,67,67,67,67,131,67,67,67,195,67,
67,67,67,67,67,67,67,67,67,67,67,67,67,67,67,67,67,67,67,67,67,67,67,67,67,67,67,67,67,67,
67,67,67,67,67,67,131,67,67,67,67,67,67,67,67,67,67,130,67,67,67,131,67,67,130,67,195,67,67,67,
67,67,67,67,67,67,67,67,67,131,67,67,67,131,67,67,67,67,67,131,67,67,67,67,67,67,67,67,67,67,
131,67,67,67,67,67,198,67,67,67,67,67,67,67,67,67,67,67,67,67,67,67,67,67,67,198,67,67,67,67,
67,67,67,67,67,67,67,67,130,67,195,67,67,67,67,67,67,67,67,67,67,67,67,195,67,131,67,195,67,131,
67,67,67,196,67,67,67,67,67,67,67,67,67,67,67,67,195,67,67,67,67,195,67,67,67,67,130,67,67,67,
67,67,67,67,67,195,67,67,67,67,67,67,67,67,67,67,67,67,67,67,67,67,198,67,67,67,67,67,67,67
</data>
 </layer>
 <layer id="8" name="decoracaoSobArvore" width="30" height="20">
  <data encoding="csv">
0,0,0,0,0,0,0,0,0,0,0,0,0,0,0,0,0,0,0,0,0,0,0,0,0,0,0,0,0,0,
0,0,0,0,0,0,0,0,0,0,0,0,0,0,0,0,0,0,0,0,0,0,0,0,0,0,0,0,0,0,
0,0,0,0,0,0,0,0,0,0,0,0,0,0,0,0,0,0,0,0,0,0,0,0,0,0,0,0,0,0,
0,0,0,0,0,0,0,0,0,0,0,0,0,0,0,0,0,0,0,0,0,0,0,0,0,0,0,0,0,0,
0,0,0,0,0,0,0,0,0,0,0,0,0,0,0,0,0,0,0,0,0,0,0,0,0,0,0,0,0,0,
0,0,0,0,353,0,0,0,0,0,0,0,0,464,464,464,464,464,0,0,0,0,0,0,0,0,0,0,0,0,
0,0,0,352,353,0,0,0,0,0,0,0,462,470,0,0,0,470,463,0,0,0,0,0,0,0,0,0,0,0,
0,0,352,0,0,0,0,0,0,0,0,466,470,0,0,0,0,0,470,527,0,0,0,0,0,0,0,0,0,0,
0,0,0,352,353,0,0,0,0,0,0,466,469,0,0,0,0,0,534,527,0,0,0,0,0,0,0,0,0,0,
0,0,0,0,0,0,0,0,0,0,0,0,465,470,0,0,0,534,525,0,0,0,0,0,0,0,0,0,0,0,
0,0,0,0,0,0,0,0,0,0,0,0,0,529,529,529,529,529,0,0,0,0,0,0,0,0,0,0,0,0,
0,0,0,0,0,0,0,0,0,0,0,0,0,0,0,0,0,0,0,0,0,0,0,0,0,0,0,0,0,0,
0,0,0,0,0,0,0,0,0,0,0,0,0,0,0,0,225,0,0,0,0,0,0,0,0,0,0,0,0,0,
0,0,0,0,0,0,0,0,0,0,0,0,0,0,0,0,0,0,0,0,0,0,0,0,0,0,0,0,0,0,
0,0,0,0,0,0,0,0,0,0,0,0,0,0,0,0,0,0,0,0,0,0,0,0,0,0,0,0,0,0,
0,0,0,0,160,0,0,0,0,0,0,0,0,0,0,0,0,0,0,0,0,0,0,0,0,0,0,0,0,0,
0,0,0,162,0,0,0,0,0,0,0,0,0,0,0,0,0,0,0,0,0,0,0,0,0,0,0,0,0,0,
0,0,0,163,0,0,0,0,0,0,0,0,0,0,0,0,0,0,0,0,0,0,0,0,0,0,0,0,0,0,
0,0,0,0,0,0,0,0,0,0,0,0,0,0,0,0,0,0,0,0,0,0,0,0,0,0,0,0,0,0,
0,0,0,0,0,0,0,0,0,0,0,0,0,0,0,0,0,0,0,0,0,0,0,0,0,0,0,0,0,0
</data>
 </layer>
 <layer id="6" name="Objetos" width="30" height="20">
  <data encoding="csv">
116,117,116,117,116,117,441,442,380,442,116,117,116,117,116,117,116,117,116,117,116,117,116,117,313,314,313,314,313,314,
180,181,180,181,180,181,377,506,505,441,180,181,180,181,180,181,180,181,180,181,180,181,180,181,442,313,314,313,314,378,
116,117,116,117,313,314,506,505,506,442,441,442,116,117,378,442,443,444,506,314,116,117,313,377,506,377,313,314,378,314,
180,181,180,181,377,443,570,569,568,569,444,506,180,181,442,443,509,508,570,506,180,181,377,378,379,376,377,378,377,378,
116,117,441,442,443,635,634,635,632,633,632,444,569,444,569,509,0,572,634,570,313,314,569,440,443,440,313,314,313,314,
180,181,505,443,635,0,0,0,130,0,0,508,633,632,633,0,0,636,637,634,570,439,633,632,633,632,570,378,314,378,
116,117,439,0,0,0,0,0,0,0,0,0,0,0,469,470,533,0,0,0,634,635,0,0,0,0,504,314,313,314,
180,181,251,0,0,0,0,0,0,0,0,0,0,469,470,469,470,469,0,0,0,0,0,0,130,0,568,378,377,378,
116,117,315,253,252,253,254,0,0,0,0,0,0,533,534,533,534,533,0,0,0,0,0,0,0,0,504,379,116,117,
180,181,379,315,316,380,253,0,0,0,0,0,0,0,469,469,470,0,0,0,0,0,0,0,0,246,377,378,180,181,
116,117,315,379,380,442,445,0,0,0,0,0,0,0,0,0,0,0,0,0,0,0,0,0,0,310,116,117,116,117,
180,181,316,378,379,569,130,0,0,0,0,0,0,135,0,133,0,0,0,0,0,0,0,0,0,374,180,181,180,181,
116,117,313,442,443,635,0,0,0,0,0,0,0,2117,2118,2119,2120,2121,0,0,0,0,0,0,0,438,376,377,378,314,
180,181,379,569,633,0,0,0,0,0,0,0,133,2181,2182,2183,2184,2185,0,133,0,0,0,0,0,502,440,378,377,378,
116,117,380,381,0,0,0,0,0,0,0,0,0,2245,2246,2247,2248,2249,0,0,0,0,0,0,0,0,374,377,378,377,
180,181,379,317,0,0,0,0,0,0,0,0,0,2309,2310,2311,2312,2313,0,0,0,0,0,0,114,115,438,441,442,441,
116,117,380,381,0,0,0,0,0,0,0,133,0,135,2374,2375,2376,133,0,135,0,0,0,0,178,179,632,570,116,117,
180,181,379,317,0,0,0,0,0,0,0,0,0,133,0,0,0,0,0,0,0,0,0,0,308,114,115,504,180,181,
116,117,380,381,0,130,0,0,0,0,0,0,0,0,0,133,0,0,130,0,0,0,0,114,115,178,179,568,116,117,
180,181,379,380,253,0,0,0,0,0,0,130,0,0,0,0,0,0,0,0,0,0,0,178,179,114,115,504,180,181
</data>
 </layer>
 <layer id="7" name="Decoracao" width="30" height="20">
  <data encoding="csv">
0,0,0,0,0,0,0,0,0,0,0,0,0,0,0,0,0,0,0,0,0,0,0,0,0,0,0,0,0,0,
0,0,0,0,0,0,0,0,0,0,0,0,0,0,0,0,0,0,0,0,0,0,0,0,0,0,0,0,0,0,
0,0,0,0,0,0,0,0,0,0,0,0,0,0,0,0,0,0,0,0,0,0,0,0,0,0,0,0,0,0,
0,0,0,0,0,0,0,0,0,0,0,0,0,0,0,0,0,562,0,0,0,0,0,0,0,0,0,0,0,0,
0,0,0,0,0,0,0,0,0,0,226,0,0,0,0,0,0,0,0,0,0,0,0,0,0,0,0,0,0,0,
0,0,0,0,0,0,0,0,0,0,0,0,0,0,0,0,0,0,0,0,0,0,0,0,0,2103,0,0,0,0,
0,0,0,0,0,0,0,0,0,0,0,0,0,0,0,0,0,0,0,0,0,0,0,0,0,0,0,0,0,0,
0,0,0,0,0,0,0,0,0,0,0,0,0,0,0,0,0,0,0,0,0,0,0,0,0,0,0,0,0,0,
0,0,0,0,0,0,0,0,0,0,0,0,0,0,0,0,0,0,0,0,0,0,0,0,0,0,0,0,0,0,
0,0,0,0,0,0,0,0,0,0,0,0,0,0,0,0,0,0,0,0,0,0,0,0,0,0,0,0,0,0,
0,0,0,0,0,0,0,0,0,0,0,0,0,0,0,0,0,0,0,0,0,0,0,0,0,0,0,0,0,0,
0,0,0,0,0,0,0,0,0,0,0,0,0,0,0,0,0,0,0,0,0,0,0,0,0,0,0,0,0,0,
0,0,0,0,0,0,0,0,0,0,0,0,0,0,2473,2474,2475,224,0,0,0,0,0,0,0,0,0,0,0,0,
0,0,0,0,2103,0,0,0,0,0,0,0,0,0,0,0,0,0,0,0,0,0,0,0,0,2103,0,0,0,0,
0,0,0,0,0,0,0,0,0,0,0,0,0,0,0,819,0,0,0,0,0,0,0,0,0,0,0,0,0,0,
0,0,0,161,0,0,0,0,0,0,0,0,0,0,0,0,0,0,0,0,0,0,0,0,0,0,0,0,0,0,
0,0,0,0,0,0,0,0,0,0,0,0,0,0,0,0,0,0,0,0,0,0,0,0,0,0,162,0,0,0,
0,0,0,0,0,0,0,0,0,0,0,0,0,0,0,0,0,0,0,0,0,0,0,0,0,0,0,0,0,0,
0,0,0,0,0,0,0,0,0,0,0,0,0,0,0,0,0,0,0,0,0,0,0,0,0,0,0,0,0,0,
0,0,0,0,0,0,0,0,0,0,0,0,0,0,0,3176,0,0,0,0,0,0,0,0,0,0,0,0,0,0
</data>
 </layer>
 <layer id="9" name="colisao" width="30" height="20" visible="0">
  <data encoding="csv">
2352,2352,2352,2352,2352,2352,2352,2352,2352,2352,2352,2352,2352,2352,2352,2352,2352,2352,2352,2352,2352,2352,2352,2352,2352,2352,2352,2352,2352,2352,
2352,2352,2352,2352,2352,2352,2352,2352,2352,2352,2352,2352,2352,2352,2352,2352,2352,2352,2352,2352,2352,2352,2352,2352,2352,2352,2352,2352,2352,2352,
2352,2352,2352,2352,2352,2352,2352,2352,2352,2352,2352,2352,2352,2352,2352,2352,0,0,2352,2352,2352,2352,2352,2352,2352,2352,2352,2352,2352,2352,
2352,2352,2352,2352,2352,0,0,0,0,0,0,2352,2352,2352,2352,0,0,0,0,2352,2352,2352,2352,2352,2352,2352,2352,2352,2352,2352,
2352,2352,2352,2352,0,0,0,0,0,0,0,0,0,0,0,0,0,0,0,0,2352,2352,0,0,0,0,2352,2352,2352,2352,
2352,2352,2352,0,0,0,0,0,0,0,0,0,0,0,0,0,0,0,0,0,0,0,0,0,0,0,0,2352,2352,2352,
2352,2352,0,0,0,0,0,0,0,0,0,0,0,0,0,0,0,0,0,0,0,0,0,0,0,0,2352,2352,2352,2352,
2352,2352,2352,0,0,0,0,0,0,0,0,0,0,0,0,0,0,0,0,0,0,0,0,0,0,0,0,2352,2352,2352,
2352,2352,2352,2352,2352,2352,0,0,0,0,0,0,0,0,0,0,0,0,0,0,0,0,0,0,0,0,2352,2352,2352,2352,
2352,2352,2352,2352,2352,2352,2352,0,0,0,0,0,0,0,0,0,0,0,0,0,0,0,0,0,0,2352,2352,2352,2352,2352,
2352,2352,2352,2352,2352,2352,0,0,0,0,0,0,0,0,0,0,0,0,0,0,0,0,0,0,0,0,2352,2352,2352,2352,
2352,2352,2352,2352,2352,0,0,0,0,0,0,0,0,0,0,0,0,0,0,0,0,0,0,0,0,2352,2352,2352,2352,2352,
2352,2352,2352,2352,0,0,0,0,0,0,0,0,0,0,0,2352,0,0,0,0,0,0,0,0,0,0,2352,2352,2352,2352,
2352,2352,2352,0,0,0,0,0,0,0,0,0,0,0,0,0,0,0,0,0,0,0,0,0,0,0,0,2352,2352,2352,
2352,2352,2352,2352,0,0,0,0,0,0,0,0,0,0,0,0,0,0,0,0,0,0,0,0,0,0,2352,2352,2352,2352,
2352,2352,2352,0,0,0,0,0,0,0,0,0,0,0,0,0,0,0,0,0,0,0,0,0,0,0,0,2352,2352,2352,
2352,2352,2352,2352,0,0,0,0,0,0,0,0,0,0,0,0,0,0,0,0,0,0,0,0,0,0,0,0,2352,2352,
2352,2352,2352,0,0,0,0,0,0,0,0,0,0,0,0,0,0,0,0,0,0,0,0,0,0,0,0,2352,2352,2352,
2352,2352,2352,2352,0,0,0,0,0,0,0,0,0,0,0,0,0,0,0,0,0,0,0,0,0,0,0,0,2352,2352,
2352,2352,2352,2352,2352,0,0,0,0,0,0,0,0,0,0,0,0,0,0,0,0,0,0,0,0,0,0,2352,2352,2352
</data>
 </layer>
</map>
